svg/white/wan.svg

<svg height="32" viewBox="0 0 32 32" width="32" xmlns="http://www.w3.org/2000/svg"><path d="m16 32c-8.836556 0-16-7.163444-16-16s7.163444-16 16-16 16 7.163444 16 16-7.163444 16-16 16zm-9-20.9101818v11.9738182l9-5.3149091 9 5.3149091v-11.9738182l-2.6060606 1.1301818v6.3534545l-6.3939394-3.7876363-6.33333333 3.7876363v-6.3534545zm.3030303-.4887273 2.36363637.9774546 6.33333333-3.69600005 6.3939394 3.69600005 2.3636364-.9774546-8.7575758-5.1010909zm1.87878788 11.8210909 6.84848482 4.0778182 6.8484849-4.0778182-2.0303031-1.1301818-4.8181818 2.8254545-4.8787878-2.8254545z" fill="#fff" fill-rule="evenodd"/></svg>

<svg xmlns="http://www.w3.org/2000/svg" width="32" height="32" viewBox="0 0 32 32">
  <path fill="#FFF" fill-rule="evenodd" d="M16,32 C7.163444,32 0,24.836556 0,16 C0,7.163444 7.163444,0 16,0 C24.836556,0 32,7.163444 32,16 C32,24.836556 24.836556,32 16,32 Z M7,11.0898182 L7,23.0636364 L16,17.7487273 L25,23.0636364 L25,11.0898182 L22.3939394,12.22 L22.3939394,18.5734545 L16,14.7858182 L9.66666667,18.5734545 L9.66666667,12.22 L7,11.0898182 Z M7.3030303,10.6010909 L9.66666667,11.5785455 L16,7.88254545 L22.3939394,11.5785455 L24.7575758,10.6010909 L16,5.5 L7.3030303,10.6010909 Z M9.18181818,22.4221818 L16.030303,26.5 L22.8787879,22.4221818 L20.8484848,21.292 L16.030303,24.1174545 L11.1515152,21.292 L9.18181818,22.4221818 Z"/>
</svg>
